X: 4039
T: The WOO'IN O'T
R: Reel.
%R: reel
N: This is version 2, for ABC software that understands voice overlays.
B: James Kerr "Merry Melodies" v.4 p.07 #39
Z: 2016 John Chambers <jc:trillian.mit.edu>
M: C|
L: 1/8
K: D
|:\
(vAF)Ad (cA)dA | egfe dcBA |\
dddd efga | x6 "^2nd"(de) & f2d2 d2 "_1st"A2 :|\
(fa)aa a2gf | (ag)gg g2ef |
gafg efde | cdBc A2a2 |\
afba geag | fdgf e2A2 |\
dddd efga | f2d2 d2z2 |]

%%sep 1 1 500
%%sep 1 1 500

